X: 1
T:Bass Face  "CYMRU"
M:C
L:1/8
Q:80
C:Mark Saul
S:Reel
K:HP
|: | {gcd}c2{g}Ac{g}B{d}A{g}B{d}c|
{gde}e2{g}ce{g}fe{g}ce|
a{g}ae{g}f-fe{g}cA|  !
{gBeBG}B2{g}BA{g}Bf{g}eB| |
{gcd}c2{g}Ac{g}B{d}A{g}B{d}c|
{gde}e2{g}ce{g}fe{g}ce|  !
a{g}ae{g}f-fe{g}cA|
{gBeBG}B2{g}B{d}c{G}A4:| |:
{d}ce|  !
{gAGAG}A2{g}ceeA{g}ce|
{gAGAG}A2ae{g}fe{g}ce|
a{g}aea-a{g}aea|  !
feac{gBG}B3e| |
{gAGAG}A2{g}ceeA{g}ce|
{gAGAG}A2ae{g}fe{g}ce|  !
a{g}ae{g}f-fe{g}cA|
{gBeBG}B2{g}B{d}c{G}A2:|
